src/icons/preview.svg

<svg width="59" height="64" viewBox="0 0 59 64" fill="none" xmlns="http://www.w3.org/2000/svg">
<path d="M40.0885 48.7619C41.798 48.7619 43.1411 50.1029 43.1411 51.8095C43.1411 53.5162 41.798 54.8571 40.0885 54.8571C38.379 54.8571 37.0359 53.5162 37.0359 51.8095C37.0359 50.1029 38.379 48.7619 40.0885 48.7619ZM40.0885 39.619C31.7548 39.619 24.6422 44.6781 21.7727 51.8095C24.6422 58.941 31.7548 64 40.0885 64C48.4222 64 55.5348 58.941 58.4043 51.8095C55.5348 44.6781 48.4222 39.619 40.0885 39.619ZM40.0885 59.4286C38.0645 59.4286 36.1234 58.6259 34.6922 57.197C33.261 55.7682 32.4569 53.8302 32.4569 51.8095C32.4569 49.7888 33.261 47.8509 34.6922 46.422C36.1234 44.9932 38.0645 44.1905 40.0885 44.1905C42.1125 44.1905 44.0537 44.9932 45.4848 46.422C46.916 47.8509 47.7201 49.7888 47.7201 51.8095C47.7201 53.8302 46.916 55.7682 45.4848 57.197C44.0537 58.6259 42.1125 59.4286 40.0885 59.4286ZM16.4917 54.8571H6.50956V6.09524H27.878V21.3333H43.1411V33.7371C45.278 33.981 47.2927 34.499 49.2464 35.2305V18.2857L30.9306 0H6.50956C4.89034 0 3.33745 0.642175 2.19249 1.78525C1.04753 2.92833 0.404297 4.47868 0.404297 6.09524V54.8571C0.404297 56.4737 1.04753 58.024 2.19249 59.1671C3.33745 60.3102 4.89034 60.9524 6.50956 60.9524H20.2464C18.7201 59.1543 17.4685 57.0819 16.4917 54.8571Z" fill="url(#paint0_linear_1_32)"/>
<defs>
<linearGradient id="paint0_linear_1_32" x1="29.4043" y1="0" x2="29.4043" y2="64" gradientUnits="userSpaceOnUse">
<stop stop-color="#BC8F8F"/>
<stop offset="0.28125" stop-color="#9F6060"/>
<stop offset="1" stop-color="#503030"/>
</linearGradient>
</defs>
</svg>

<svg xmlns="http://www.w3.org/2000/svg" width="59" height="64" fill="none"><path fill="url(#a)" d="M40.0885 48.7619c1.7095 0 3.0526 1.341 3.0526 3.0476 0 1.7067-1.3431 3.0476-3.0526 3.0476s-3.0526-1.3409-3.0526-3.0476c0-1.7066 1.3431-3.0476 3.0526-3.0476m0-9.1429c-8.3337 0-15.4463 5.0591-18.3158 12.1905C24.6422 58.941 31.7548 64 40.0885 64c8.3337 0 15.4463-5.059 18.3158-12.1905-2.8695-7.1314-9.9821-12.1905-18.3158-12.1905m0 19.8096a7.6377 7.6377 0 0 1-5.3963-2.2316 7.6127 7.6127 0 0 1-2.2353-5.3875 7.6129 7.6129 0 0 1 2.2353-5.3875 7.638 7.638 0 0 1 5.3963-2.2315c2.024 0 3.9652.8027 5.3963 2.2315a7.6129 7.6129 0 0 1 2.2353 5.3875 7.6127 7.6127 0 0 1-2.2353 5.3875 7.6375 7.6375 0 0 1-5.3963 2.2316m-23.5968-4.5715H6.5096V6.0952H27.878v15.2381h15.2631v12.4038c2.1369.2439 4.1516.7619 6.1053 1.4934V18.2857L30.9306 0H6.5096a6.1104 6.1104 0 0 0-4.3171 1.7853 6.0902 6.0902 0 0 0-1.7882 4.31V54.857a6.0902 6.0902 0 0 0 1.7882 4.31 6.1103 6.1103 0 0 0 4.317 1.7853h13.7369c-1.5263-1.7981-2.7779-3.8705-3.7547-6.0953"/><defs><linearGradient id="a" x1="29.4043" x2="29.4043" y1="0" y2="64" gradientUnits="userSpaceOnUse"><stop stop-color="#BC8F8F"/><stop offset=".2813" stop-color="#9F6060"/><stop offset="1" stop-color="#503030"/></linearGradient></defs></svg>
